autogermania/dist/img/svg/fabric1.svg

<svg xmlns="http://www.w3.org/2000/svg" width="25" height="25"><path fill-rule="evenodd" d="M5.537 1.106L6.263.38l18.356 18.355-.726.726L5.537 1.106zm5.198.041l.725-.726 13.117 13.117-.726.726L10.735 1.147zm10.326.014l.726-.726 2.777 2.777-.726.726-2.777-2.777zm2.749 7.905l-7.878-7.877.726-.726 7.878 7.877-.726.726zm.463 15.933L0 .725l.726-.726L25 24.273l-.727.726zM4.068 23.966l-.727.726L.1 21.451l.726-.726 3.242 3.241zM.925 15.668l8.406 8.405-.726.726-8.406-8.405.726-.726zm.069-5.088l13.425 13.425-.726.726L.268 11.306l.726-.726zm.069-5.087l18.443 18.443-.726.726L.336 6.219l.727-.726z"/></svg>

<svg 
 xmlns="http://www.w3.org/2000/svg"
 xmlns:xlink="http://www.w3.org/1999/xlink"
 width="25px" height="25px">
<path fill-rule="evenodd"  fill="rgb(0, 0, 0)"
 d="M5.537,1.106 L6.263,0.380 L24.619,18.735 L23.893,19.461 L5.537,1.106 ZM10.735,1.147 L11.460,0.421 L24.577,13.538 L23.851,14.264 L10.735,1.147 ZM21.061,1.161 L21.787,0.435 L24.564,3.212 L23.838,3.938 L21.061,1.161 ZM23.810,9.066 L15.932,1.189 L16.658,0.463 L24.536,8.340 L23.810,9.066 ZM24.273,24.999 L-0.000,0.725 L0.726,-0.001 L25.000,24.273 L24.273,24.999 ZM4.068,23.966 L3.341,24.692 L0.100,21.451 L0.826,20.725 L4.068,23.966 ZM0.925,15.668 L9.331,24.073 L8.605,24.799 L0.199,16.394 L0.925,15.668 ZM0.994,10.580 L14.419,24.005 L13.693,24.731 L0.268,11.306 L0.994,10.580 ZM1.063,5.493 L19.506,23.936 L18.780,24.662 L0.336,6.219 L1.063,5.493 Z"/>
</svg>
